uploads/2019/01/11/team-spirit-01.svg

<svg height="41" viewBox="0 0 41 41" width="41" xmlns="http://www.w3.org/2000/svg"><g fill="#04de47" fill-rule="evenodd" transform="translate(7.719943 1.006608)"><path d="m6.56838085 22.4503528-.70649605-.1892123c-2.45648154-.6608838-3.91428956-3.1843485-3.25889243-5.6411405l.77528383-2.8915959c.34263427.2200441.67211659.4599037.98676363.7183533.81314207.7191441 1.77595648 1.248777 2.818878 1.5506318 1.16505516.261649 2.36104969.35881 3.55308817.2886482v-.0007102l1.0517141 3.9255872c-1.017656 1.8577055-3.17200955 2.7818873-5.22033925 2.2394384z" opacity=".15"/><path d="m25.5579314 33.1479508c-.0487642-.1819741-.1678628-.3371303-.3310911-.4313305-.1632284-.0942002-.3572132-.1197266-.5392733-.0709629l-2.0592278.5514431-2.2161321-8.2662482c3.0316947-.9921303 4.7606833-4.1777872 3.9396641-7.2588205l-2.8912189-10.94476718c-.2031591-.75775974-.9824295-1.2074552-1.7405868-1.00444462l-4.2763547 1.14521744-9.58068901-2.55692308c-.36416064-.09775705-.75226255-.04686848-1.07887255.14146356-.32660999.18833204-.56495466.49866928-.66256701.86269695l-2.89121887 10.93667023c-.82117158 3.0810515.90787112 6.266808 3.93966412 7.2588205l-2.21584788 8.2661062-2.05965413-.5514431c-.37779079-.0980506-.76399033.1268082-.86500813.5036377-.10101779.3768296.12096336.7645594.49719245.8684357l5.49136877 1.4706569c.37779078.0980506.76399033-.1268082.86500812-.5036377.10101779-.3768296-.12096335-.7645594-.49719244-.8684357l-2.05894351-.551443 2.21584788-8.2662482c2.15003003.4423841 4.37052659-.3201409 5.79451829-1.9898544 1.1582442 2.5663368 3.9445862 3.9841344 6.7022612 3.4103672l2.21599 8.2662482-2.0592278.5514431c-.2469966.0641047-.4406382.2556588-.5073235.5018545s.0038261.5092264.1847335.6891167c.1809074.1798902.4444301.2490156.6904057.1811021l5.4912267-1.4706569c.1820982-.0487379.3373588-.1677977.4316104-.3309759.0942517-.1631781.1197699-.357101.0709383-.5390882zm-5.4704766-26.05305747 1.7390235 6.64572717c-.526688.2920208-1.0258697.631058-1.4914443 1.0129677-.6621725.5972668-1.4496201 1.0389374-2.3046751 1.2926667-1.1912364.2428756-2.4102226.3209295-3.6227286.2319697-.7332153-.0173302-1.4780847-.0264215-2.1942452.0234385l-1.7356124-6.63322669zm-14.59267506-1.41198974 7.19869866 1.92152769-2.5835214.69136359c-.77895637.35184653-1.18811266 1.21599038-.96644 2.04113483l1.216151 4.5361236v-.0007102c-.94255134.0428221-1.88660122-.0404467-2.80708174-.2475954-.85501922-.2538138-1.64244903-.6954744-2.30467509-1.2926667-.46571571-.381768-.96515098-.7204829-1.49215489-1.0119733zm1.07360111 16.76744921-.70649605-.1892123c-2.45648154-.6608838-3.91428956-3.1843485-3.25889243-5.6411405l.77528383-2.8915959c.34263427.2200441.67211659.4599037.98676363.7183533.81314207.7191441 1.77595648 1.248777 2.818878 1.5506318 1.16505516.261649 2.36104969.35881 3.55308817.2886482v-.0007102l1.0517141 3.9255872c-1.017656 1.8577055-3.17200955 2.7818873-5.22033925 2.2394384zm12.44547285 1.4205128c-2.4581477.6554291-4.9832256-.8016547-5.6444358-3.2570938l-.7816794-2.9180174c.5632355-.0244329 1.1644181-.0126426 1.7860664.0022728 1.3481967.0969499 2.7033367.0026391 4.0250803-.2801251 1.0426516-.3019642 2.0051748-.8316457 2.8180253-1.5507739.3148379-.2583308.6444078-.498185.9870479-.7183533l.7749995 2.8917379c.6557625 2.4568982-.8020624 4.9806926-3.2587503 5.6415667z" fill-rule="nonzero"/><path d="m16.3442054 2.84102564c.3924633 0 .7106176-.31799263.7106176-.71025641v-1.42051282c0-.39226378-.3181543-.71025641-.7106176-.71025641s-.7106176.31799263-.7106176.71025641v1.42051282c0 .39226378.3181543.71025641.7106176.71025641z"/><path d="m19.6892247 4.64195179 2.0099109-2.00888923c.2754402-.27772214.2744586-.72573612-.0021958-1.00224993-.2766544-.2765138-.7248963-.27749485-1.0027596-.00219468l-2.0100531 2.00888923c-.2775107.27740895-.2774789.72714591.0000711 1.00451563s.7275157.27733792 1.0050265-.00007102z"/><path d="m13.5880039 4.64195179c.2778634.27530017.7261052.27431913 1.0027596-.00219468.2766545-.27651381.277636-.72452778.0021958-1.00224993l-2.0099109-2.00903128c-.2775107-.27740894-.7274764-.27744074-1.0050265-.00007102-.27755.27736972-.2775818.72710668-.000071 1.00451563z"/></g></svg>

<?xml version="1.0" encoding="UTF-8"?>
<svg width="41px" height="41px" viewBox="0 0 41 41" version="1.1" xmlns="http://www.w3.org/2000/svg" xmlns:xlink="http://www.w3.org/1999/xlink">
    <!-- Generator: sketchtool 52.4 (67378) - http://www.bohemiancoding.com/sketch -->
    <title>8239C55B-2C58-476D-B48B-23B5A29B42AD</title>
    <desc>Created with sketchtool.</desc>
    <g id="Page-1" stroke="none" stroke-width="1" fill="none" fill-rule="evenodd">
        <g id="Wunder-Careers-04-Cultures" transform="translate(-233.000000, -1300.000000)" fill="#04DE47">
            <g id="Team-Spirit-Copy" transform="translate(208.000000, 1007.000000)">
                <g id="Enginiering-Copy-2" transform="translate(0.000000, 68.000000)">
                    <g id="Group-18" transform="translate(25.211268, 225.045070)">
                        <g id="cheers" transform="translate(7.508675, 0.961538)">
                            <path d="M6.56838085,22.4503528 L5.8618848,22.2611405 C3.40540326,21.6002567 1.94759524,19.076792 2.60299237,16.62 L3.3782762,13.7284041 C3.72091047,13.9484482 4.05039279,14.1883078 4.36503983,14.4467574 C5.1781819,15.1659015 6.14099631,15.6955344 7.18391783,15.9973892 C8.34897299,16.2590382 9.54496752,16.3561992 10.737006,16.2860374 L10.737006,16.2853272 L11.7887201,20.2109144 C10.7710641,22.0686199 8.61671055,22.9928017 6.56838085,22.4503528 Z" id="Path" opacity="0.149999991"></path>
                            <path d="M25.5579314,33.1479508 C25.5091672,32.9659767 25.3900686,32.8108205 25.2268403,32.7166203 C25.0636119,32.6224201 24.8696271,32.5968937 24.687567,32.6456574 L22.6283392,33.1971005 L20.4122071,24.9308523 C23.4439018,23.938722 25.1728904,20.7530651 24.3518712,17.6720318 L21.4606523,6.72726462 C21.2574932,5.96950488 20.4782228,5.51980942 19.7200655,5.72282 L15.4437108,6.86803744 L5.86302179,4.31111436 C5.49886115,4.21335731 5.11075924,4.26424588 4.78414924,4.45257792 C4.45753925,4.64090996 4.21919458,4.9512472 4.12158223,5.31527487 L1.23036336,16.2519451 C0.409191781,19.3329966 2.13823448,22.5187531 5.17002748,23.5107656 L2.9541796,31.7768718 L0.894525468,31.2254287 C0.516734683,31.1273781 0.130535138,31.3522369 0.0295173446,31.7290664 C-0.0715004488,32.105896 0.150480697,32.4936258 0.526709785,32.5975021 L6.01807856,34.068159 C6.39586934,34.1662096 6.78206889,33.9413508 6.88308668,33.5645213 C6.98410447,33.1876917 6.76212333,32.7999619 6.38589424,32.6960856 L4.32695073,32.1446426 L6.54279861,23.8783944 C8.69282864,24.3207785 10.9133252,23.5582535 12.3373169,21.88854 C13.4955611,24.4548768 16.2819031,25.8726744 19.0395781,25.2989072 L21.2555681,33.5651554 L19.1963403,34.1165985 C18.9493437,34.1807032 18.7557021,34.3722573 18.6890168,34.618453 C18.6223315,34.8646487 18.6928429,35.1276794 18.8737503,35.3075697 C19.0546577,35.4874599 19.3181804,35.5565853 19.564156,35.4886718 L25.0553827,34.0180149 C25.2374809,33.969277 25.3927415,33.8502172 25.4869931,33.687039 C25.5812448,33.5238609 25.606763,33.329938 25.5579314,33.1479508 Z M20.0874548,7.09489333 L21.8264783,13.7406205 C21.2997903,14.0326413 20.8006086,14.3716785 20.335034,14.7535882 C19.6728615,15.350855 18.8854139,15.7925256 18.0303589,16.0462549 C16.8391225,16.2891305 15.6201363,16.3671844 14.4076303,16.2782246 C13.674415,16.2608944 12.9295456,16.2518031 12.2133851,16.3016631 L10.4777727,9.66843641 L20.0874548,7.09489333 Z M5.49477974,5.68290359 L12.6934784,7.60443128 L10.109957,8.29579487 C9.33100063,8.6476414 8.92184434,9.51178525 9.143517,10.3369297 L10.359668,14.8730533 L10.359668,14.8723431 C9.41711666,14.9151652 8.47306678,14.8318964 7.55258626,14.6247477 C6.69756704,14.3709339 5.91013723,13.9292733 5.24791117,13.332081 C4.78219546,12.950313 4.28276019,12.6115981 3.75575628,12.3201077 L5.49477974,5.68290359 Z M6.56838085,22.4503528 L5.8618848,22.2611405 C3.40540326,21.6002567 1.94759524,19.076792 2.60299237,16.62 L3.3782762,13.7284041 C3.72091047,13.9484482 4.05039279,14.1883078 4.36503983,14.4467574 C5.1781819,15.1659015 6.14099631,15.6955344 7.18391783,15.9973892 C8.34897299,16.2590382 9.54496752,16.3561992 10.737006,16.2860374 L10.737006,16.2853272 L11.7887201,20.2109144 C10.7710641,22.0686199 8.61671055,22.9928017 6.56838085,22.4503528 Z M19.0138537,23.8708656 C16.555706,24.5262947 14.0306281,23.0692109 13.3694179,20.6137718 L12.5877385,17.6957544 C13.150974,17.6713215 13.7521566,17.6831118 14.3738049,17.6980272 C15.7220016,17.7949771 17.0771416,17.7006663 18.3988852,17.4179021 C19.4415368,17.1159379 20.40406,16.5862564 21.2169105,15.8671282 C21.5317484,15.6087974 21.8613183,15.3689432 22.2039584,15.1487749 L22.9789579,18.0405128 C23.6347204,20.497411 22.1768955,23.0212054 19.7202076,23.6820795 L19.0138537,23.8708656 Z" id="Shape" fill-rule="nonzero"></path>
                            <path d="M16.3442054,2.84102564 C16.7366687,2.84102564 17.054823,2.52303301 17.054823,2.13076923 L17.054823,0.71025641 C17.054823,0.317992626 16.7366687,2.40192294e-17 16.3442054,0 C15.9517421,-2.40192294e-17 15.6335878,0.317992626 15.6335878,0.71025641 L15.6335878,2.13076923 C15.6335878,2.52303301 15.9517421,2.84102564 16.3442054,2.84102564 Z" id="Path"></path>
                            <path d="M19.6892247,4.64195179 L21.6991356,2.63306256 C21.9745758,2.35534042 21.9735942,1.90732644 21.6969398,1.63081263 C21.4202854,1.35429883 20.9720435,1.35331778 20.6941802,1.62861795 L18.6841271,3.63750718 C18.4066164,3.91491613 18.4066482,4.36465309 18.6841982,4.64202281 C18.9617482,4.91939253 19.4117139,4.91936073 19.6892247,4.64195179 Z" id="Path"></path>
                            <path d="M13.5880039,4.64195179 C13.8658673,4.91725196 14.3141091,4.91627092 14.5907635,4.63975711 C14.867418,4.3632433 14.8683995,3.91522933 14.5929593,3.63750718 L12.5830484,1.6284759 C12.3055377,1.35106696 11.855572,1.35103516 11.5780219,1.62840488 C11.3004719,1.9057746 11.3004401,2.35551156 11.5779509,2.63292051 L13.5880039,4.64195179 Z" id="Path"></path>
                        </g>
                    </g>
                </g>
            </g>
        </g>
    </g>
</svg>
